X:1
T:Title
%%score { ( 1 3 ) | ( 2 4 ) }
L:1/8
Q:1/4=81
M:6/8
K:D
V:1 treble nm="Grand Piano"
V:3 treble 
V:2 bass 
V:4 bass 
V:1
 [FA][DF][FA] [Fd][FA]F | A G2- G3 | [EG][^DF][EG] [CE][CB][CA] | [DF]6 | %4
w: Mrs.~C.~H.~Morris * * * * *||||
 [Fd]>[Fd][Fd] [Fd][Ac][GB] | [FA] F2- F3 | E>EA ^GAB | [CA]6 | [CG]>[CG][CG] [CG][DG][EG] | %9
w: |||||
 [EG]3 [DF]3 | [Fd]>[Fd][Fd] [Fd][Fc][FB] | c6 | B>BB dcB | .[DFA]3 [Fd]3 | %14
w: |||||
 G>FE [CA][CG][K:bass][G,CE] | [F,D]6 | .[DF]6[K:bass] | [CG]6 | .[CE]6 | [DF]6 | %20
w: ||||||
 [Fd]>[Fd][Fd] [Fd][Gc][Ad] | e>dc B3 | .A>FF [CEA][DF][EG] | [DFA]6 |] %24
w: ||||
V:2
 [D,D][D,A,][D,A,] [D,A,][D,D][D,A,D] | [E,A,C] [E,A,C]2- [E,A,C]3 | %2
 [A,,A,][A,,A,][A,,A,] [A,,A,][A,,A,][A,,A,] | [D,A,]6 | [D,A,]>[D,A,][D,A,] [D,A,][D,A,][D,D] | %5
 [D,D] [D,A,D]2- [D,A,D]3 | [E,A,C]>[E,A,C][E,A,C] [E,B,D][E,A,C][E,^G,D] | [A,,A,]6 | %8
 [A,,A,]>[A,,A,][A,,A,] [A,,A,][B,,A,][C,A,] | [D,A,]3 [D,A,]3 | %10
 [B,,B,]>[B,,B,][B,,B,] [B,,B,][C,^A,][D,B,] | F3 z3 | [G,B,D]>[G,DG][G,DG] [G,B,G][G,CG][G,DG] | %13
 z2 A, [B,,B,]3 | [E,B,E]>[E,A,D][E,A,C] [A,,A,][A,,A,]A,, | D,6 | D,>D,D, D,C,D, | E,2 E, .E,3 | %18
 A,,>A,,A,, A,,B,,C, | D,2 D, .D,3 | [D,A,]>[D,A,][D,A,] [D,A,][E,A,][F,A,] | %21
 [G,B,G]>[G,B,G][G,CG] [G,DG]3 | [A,DF]>[K:bass][A,D][A,D] A,,A,,A,, | D,6 |] %24
V:3
 x6 | x6 | x6 | x6 | x6 | x6 | x6 | x6 | x6 | x6 | x6 | z3 E3 | x6 | x6 | x5[K:bass] x | x6 | %16
 A,>A,A, A,A,[K:bass]F, | A,2 A, .A,3 | A,>A,A, G,G,G, | A,2 A, .A,3 | x6 | x6 | x6 | x6 |] %24
V:4
 x6 | x6 | x6 | x6 | x6 | x6 | x6 | x6 | x6 | x6 | x6 | [F,^A,]6 | x6 | D,3 z3 | x6 | x6 | x6 | %17
 x6 | x6 | x6 | x6 | x6 | x3/2[K:bass] x9/2 | x6 |] %24

